X:1
T:the Duchess of Gordon
T:the Duchess of Gordon
T:William Marshall
C:William Marshall
%%score { ( 1 3 ) | ( 2 4 ) }
L:1/8
M:3/4
K:Bb
V:1 treble nm="Moderato"
V:3 treble 
V:2 bass 
V:4 bass 
V:1
 FG/A/ | [DFB]2 [B,FB]2 [B,DB]2 | d3{edcd} e [FBf]2 | c>d (3fed (3dcB | A2 G2 [B,F]{GFEF}[EG]/A/ | %5
 [B,FB]2 [B,FB]2 [B,DFB]2 | d3{edcd} e f2 | =e>b ag f>e | g2 f2 f{gfef}g/a/ | b2 f2 d2 | %10
 g2 e2 c^c | d>f ed{d} c>B | A2 G2 [B,F]{GFEF}[EG]/A/ | B2 B,2 [B,D]2 | [Ff]3 g/e/ [Fd]2 | %15
 F>e d2 d/>c/B/>c/ | [EFc]2 [DFB]2 |] d>e | f2 d2 [Bb]2 | f2 d2 [Bb]2 | gf ed cB | A2 G2 TFG/A/ | %22
 [DB]2 [DF]2 [DB]2 | d3{edcd} e f2 | =e>b ag f>e | [Bg]2 [Af]2 d>Te | f2 (3fdf [Bb]2 | %27
 g2 (3geg b2 | c>d e>d (3dcB | A2 G2 [B,F]G/A/ | B2 B,2 D2 | [Fcf]3 g/e/ [Fd]2 | %32
 F>e [Fd]2 d/>c/B/>c/ x4 [EA]2 | [EFc]2 [DFB]2 |] %34
V:2
 z2 | [B,,,B,,]2 [D,,D,]2 [F,,F,]2 | B,4 x2 | [E,,E,]2 [C,,C,]2 [D,,D,]2 | %4
 E,E,,G,,B,, [D,,D,][C,,C,] | [B,,,B,,]2 [D,,D,]2 [F,,F,]2 | B,4 x2 | x2 [G,B,C]2 [G,B,C]2 | %8
 F,F,,F,E, F,2 | [B,,B,]2 [D,B,]2 [B,,F,_A,]2 | [E,G,]2 [C,G,]2 [F,A,]2 | [B,D]2 [D,B,]2 [D,B,]2 | %12
 E,E,,B,,G,, [D,,D,][C,,C,] | [B,,,B,,]2 [B,,,B,,]2 [B,,,B,,]2 | [A,,,A,,]2 [F,,,F,,]2 [B,,,B,,]2 | %15
 [D,,D,]>[E,,E,] [F,,F,]2 [F,,F,]2 | B,,2 B,2 |] x2 | B,,B,F,B,D,B, | B,,B,F,B,D,B, | %20
 B,,B,F,B,D,B, | E,E,,G,,B,, [D,,D,][C,,C,] | [B,,,B,,]2 [B,,,B,,]2 [B,,,B,,]2 | %23
 [B,,,B,,]2 [C,,C,]2 [D,,D,]2 | x2 [G,B,C]2 [G,B,C]2 | F,F,,F,E, F,2 |{B,,} [B,,B,]2 [B,DF]2 z2 | %27
 [E,,E,]2 [B,EG]2 x2 | [E,,E,]>[D,,D,] [C,,C,]2 [D,,D,]2 | E,E,,G,,B,, [D,,D,][C,,C,] | %30
 [B,,,B,,]2 [B,,,B,,]2 [B,,,B,,]2 | [A,,,A,,]2 [F,,,F,,]2 [B,,,B,,]2 | %32
 [D,,D,]>[E,,E,] [F,,F,]2 [F,,F,]2 x6 | B,,2 B,2 |] %34
V:3
 x2 | x6 | F4 x2 | G2 G2 F2 | [B,E]4 x2 | x6 | F4 x2 | B4 x2 | B2 A2 B2 | B4 B2 | G2 G2 F2 | %11
 F2 F2 F2 | [B,E]4 x2 | x6 | x3 A x2 | F2 F2 [EA]2 | x4 |] x2 | B4 x2 | B4 x2 | B4 F2 | %21
 [B,E]4 B,2 | x6 | F4 [FB]2 | B4 x2 | x4 B2 | B4 x2 | B6 | G2 G2 F2 | [B,E]4 x2 | x6 | x3 A x2 | %32
 x12 | x4 |] %34
V:4
 x2 | x6 | B,,3 C, [D,B,]2 | x6 | x6 | x6 | B,,3 C, [D,B,]2 | C,6 | x4 D,C, | x6 | x6 | x6 | x6 | %13
 x6 | x6 | x6 | x4 |] x2 | B,,6 | B,,6 | B,,6 | x6 | x6 | x6 | C,6 | x4 D,C, | x6 | x6 | x6 | x6 | %30
 x6 | x6 | x12 | x4 |] %34

